!!!COM:	Bach, Johann Sebastian
!!!OMV:	Befiehl du deine Wege
!!!OTL:	Befiehl du deine Wege
**kern	**fb	**kern	**kern	**kern	**kern
*part5	*part5	*part4	*part3	*part2	*part1
*staff5	*	*staff4	*staff3	*staff2	*staff1
*I"Voice	*	*I"Voice	*I"Voice	*I"Voice	*I"Flute
*I'V	*	*I'V	*I'V	*I'V	*I'Fl.
*clefF4	*	*clefGv2	*clefG2	*clefG2	*clefG2
*k[]	*	*k[]	*k[]	*k[]	*k[]
*M4/4	*	*M4/4	*M4/4	*M4/4	*M4/4
4E	.	8GL	4e	4e	8r
.	.	8BJ	.	.	[8gg
=2	=2	=2	=2	=2	=2
4F	7	8AL	8eL	4a	16ggLL]
.	.	.	.	.	16cccJ
.	6	8cJ	8dJ	.	[8ffJ
4G	.	4B	4d	4g	16ffLL]
.	.	.	.	.	32eeL
.	.	.	.	.	32ddJJ
.	.	.	.	.	[8eeJ
8AAL	6	8cL	8cL	4f	16eeLL]
.	.	.	.	.	16aJ
8BBJ	.	8GJ	8dJ	.	[8ddJ
4C	.	4G	8cL	4e	16ddLL]
.	.	.	.	.	32ccL
.	.	.	.	.	32bJJ
.	.	.	8BJ	.	[8ccJ
=3	=3	=3	=3	=3	=3
2FF	6	8AL	2A	2d	16ccLL]
.	.	.	.	.	16ee
.	.	8F	.	.	16dd
.	.	.	.	.	16ccJJ
.	.	8D	.	.	16bLL
.	.	.	.	.	16cc
.	.	8dJ	.	.	16b
.	.	.	.	.	16aJJ
4EE	#	4G#X	4B	4e	16g#XLL
.	.	.	.	.	16a
.	.	.	.	.	16g#
.	.	.	.	.	16f#XJJ
4E	#	4G#	4e	4b	8eL
.	.	.	.	.	[8bbJ
=4	=4	=4	=4	=4	=4
!!linebreak:original
8AL	.	4.A	4e	4cc	16bbLL]
.	.	.	.	.	16ddd
8GnJ	.	.	.	.	16ccc
.	.	.	.	.	16bbJJ
8FL	.	.	4f	4cc	16aaLL
.	.	.	.	.	16gg#XJ
8EJ	.	8c	.	.	[8aaJ
8DL	6 5	8dL	4f	4b	16aaLL]
.	.	.	.	.	16ccc
8CJ	.	8DJ	.	.	16bb
.	.	.	.	.	16aaJJ
4E	3	8GL	8eL	4b	16ggnLL
.	.	.	.	.	16ffJ
.	.	8FJ	8dJ	.	[8ggJ
=	=	=	=	=	=
2.AA	5 #	4E	4c#X	2.a	16ggLL]
.	.	.	.	.	16bb-X
.	.	.	.	.	16aa
.	.	.	.	.	16ggJJ
.	6 4	8.FL	4d	.	16ffLL
.	.	.	.	.	16eeJ
.	.	.	.	.	8ffJ
.	.	16GJk	.	.	.
.	5 n	4A	4cn	.	4ee
=5:|!	=5:|!	=5:|!	=5:|!	=5:|!	=5:|!
4A	.	4e	8aL	4cc	[4aa
.	.	.	8gJ	.	.
=6	=6	=6	=6	=6	=6
!!pagebreak:original
4D	.	4d	4f	8b	16aaLL]
.	.	.	.	.	16ccc
.	.	.	.	16ccLL	16bb
.	.	.	.	16ddJJ	16aaJJ
4E	6	8dL	4e	4g	16ggLL
.	.	.	.	.	16ffJ
.	.	8cJ	.	.	[8ggJ
4F	.	4c	8eL	4a	16ggLL]
.	.	.	.	.	16bb-X
.	.	.	8cJ	.	16aa
.	.	.	.	.	16ggJJ
4D	6	4d	4f	4b	16ffLL
.	.	.	.	.	16eeJ
.	.	.	.	.	[8ffJ
=7	=7	=7	=7	=7	=7
2C	.	4G	4.g	2cc	16ffLL]
.	.	.	.	.	16aa
.	.	.	.	.	16gg
.	.	.	.	.	16ffJJ
.	.	8AL	.	.	16eeLL
.	.	.	.	.	16ff
.	.	8BJ	8f	.	16ee
.	.	.	.	.	16ddJJ
4C	.	4c	4e	4cc	16ccLL
.	.	.	.	.	16gg
.	.	.	.	.	16aa
.	.	.	.	.	16bbJJ
4E	6	4c	4c	4g	8cccL
.	.	.	.	.	[8ggJ
=8	=8	=8	=8	=8	=8
4F	.	4F	4c	4a	16ggLL]
.	.	.	.	.	16ccJ
.	.	.	.	.	[8ffJ
4C	.	4G	8cL	4g	16ffLL]
.	.	.	.	.	32eeL
.	.	.	.	.	32ddJJ
.	.	.	8B-XJ	.	[8eeJ
4C#X	6	4E	4A	4a	16eeLL]
.	.	.	.	.	16gg
.	.	.	.	.	16ff
.	.	.	.	.	16eeJJ
4D	.	8FL	4A	4f	16ddLL
.	.	.	.	.	16cc#XJ
.	.	8GJ	.	.	[8ddJ
=9	=9	=9	=9	=9	=9
!!linebreak:original
2AA	.	2A	2A	2e	16ddLL]
.	.	.	.	.	16ff
.	.	.	.	.	16ee
.	.	.	.	.	16ddJJ
.	.	.	.	.	16ccLL
.	.	.	.	.	16b
.	.	.	.	.	16dd
.	.	.	.	.	16ccJJ
4r	.	4r	4r	4r	16ccLL
.	.	.	.	.	16dd
.	.	.	.	.	16cc
.	.	.	.	.	16bJJ
4AA	.	4A	4e	4cc	8aL
.	.	.	.	.	[8aaJ
=10	=10	=10	=10	=10	=10
4E	.	4G	4e	4b	16aaLL]
.	.	.	.	.	16ccc
.	.	.	.	.	16bb
.	.	.	.	.	16aaJJ
4BB	6	4B	4d	4dd	16ggLL
.	.	.	.	.	16aa
.	.	.	.	.	16gg
.	.	.	.	.	16ffJJ
8CnL	.	8BL	8eL	4cc	[2ee
8DJ	.	8AJ	8f#XJ	.	.
4E	.	8eL	8gL	4b	.
.	.	8dJ	8g#XJ	.	.
=11	=11	=11	=11	=11	=11
2F	7	8cL	4a	2a	16eeLL]
.	.	.	.	.	16gg
.	.	8c#XJ	.	.	16ff
.	.	.	.	.	16eeJJ
.	6	4d	4A	.	16ddLL
.	.	.	.	.	16cc#XJ
.	.	.	.	.	[8ddJ
4E	.	4G	4e	4b	16ddLL]
.	.	.	.	.	16ff
.	.	.	.	.	16ee
.	.	.	.	.	16ddJJ
4A	.	8AL	8eL	4e	16cc#LL
.	.	.	.	.	16dd
.	.	8GJ	8c#XJ	.	16b
.	.	.	.	.	16cc#JJ
=12	=12	=12	=12	=12	=12
!!pagebreak:original
4D	.	8FL	8AL	4f	16ddLL
.	.	.	.	.	16aJ
.	.	8GJ	8BJ	.	[8ddJ
8AAL	.	4A	4cn	4e	16ddLL]
.	.	.	.	.	32ccL
.	.	.	.	.	32bJJ
8GGJ	.	.	.	.	[8ccJ
8FFL	.	4A	4d	4d	16ccLL]
.	.	.	.	.	16ee
8FF#XJ	.	.	.	.	16dd
.	.	.	.	.	16ccJJ
4GG	.	[4B	8dL	4g	16bLL
.	.	.	.	.	16ccJ
.	.	.	8cJ	.	[8ddJ
=13	=13	=13	=13	=13	=13
4GG#X	.	8BL]	[4B	2.e;	16ddLL]
.	.	.	.	.	16ff
.	.	8G#X	.	.	16ee
.	.	.	.	.	16ddJJ
4AA	.	8E	8B]	.	16ccLL
.	.	.	.	.	16eeJ
.	.	8cJ	16BLL	.	[8aaJ
.	.	.	16AJJ	.	.
4EE	.	4B	4B	.	8aaL]
.	.	.	.	.	8gg#XJ
=||	=||	=||	=||	=||	=||
*-	*-	*-	*-	*-	*-
!!!system-decoration: s1,s2,s3,s4,s5
